X: 3
T: Mons Meg
R: strathspey
M: 4/4
L: 1/8
K: Ddor
A|:"Dm"{c}d2 cd B/c/d cA|"C" BggB "Am" BAAg|"Bb"g<a a2 ag e/f/g|"G" faa2 "Am"afdA|
"Dm"{c}d2 cd B/c/d cA|"C" BggB "Am"BAAg|"Dm" g<a a2 ag e/f/g|1 "F"fd "C"ec "Dm"{c}d2 dA:|2 "F"fd"C"ec "G"{c}d2 dg||
|:"Dm"fd e/f/g afdf|"G"gBed "Am"d<eAg|"Bb" {g}a2 afdf ag|"F"fded "C"ce e/f/g|
"Dm"fd e/f/g afdf|"G"gBed "Am" d<eAg|"Bb"{g}a2 afdf ag|1 "F"fd"C"ec "Dm"{c}d2 dg:|2 "F"fd"C"ec "Dm"{c}d2 dA||

